!!!OTL: Jungfer Doertchen.
!!!OTL-incipit: Es war ein Jaeger gar wohlgemut,
!!!ARE: Europa, Mitteleuropa, Deutschland (BRD), Hessen, Nassau, Ellershausen
!!!YOR: 3, S. 89
!!    1860 aufgezeichnet (ca.)
!!!SCT: Q0057D
!!!TXL: @@DE
!!!YEM: Copyright 1995, estate of Helmut Schaffrath.
**kern	**text
*ICvox	*
*M6/8	*
*k[f#]	*
*G:	*
!LO:TX:a:t=Langsam.	!
{8d	1._Es
4g	war
8ee	ein
=1	=1
8.dd	Jä-
16ee	-ger
8dd	gar
4cc	wohl-
8dd	-gemut,
=2	=2
4b;}	.
{8d	er
4g	trug
8ee	ʒwei
=3	=3
8.dd	Fe-
16ee	-dern
8dd	an
4cc	ſei-
8dd	-nem
=4	=4
4b;}	Hut;
{8cc	die
8.cc	ei-
16dd	-ne
8ee	war
=5	=5
8eeL	ſchwarʒ,
8ddJ	.
8cc	die
8.cc	and-
16dd	-re
8ee	war
=6	=6
4dd;}	rot
{8dd	'Mich
8.a	deuch
16a	te,
8ee	mich
=7	=7
8.ee	deuch-
16dd	-te,
8cc	mein
8.dd	Schätʒlein
16ee	.
16dd	wä-
16cc	-re
=8	=8
4b;}	tot.
{8cc	die
8.cc	ei-
16dd	-ne
8ee	war
=9	=9
8eeL	ſchwarʒ,
8ddJ	.
8cc	die
8.cc	and-
16dd	-re
8ee	war
=10	=10
4dd;}	rot
{8dd	'Mich
8.a	deuch
16a	te,
8ee	mich
=11	=11
8.ee	deuch-
16dd	-te,
8cc	mein
8.dd	Schätʒlein
16ee	.
16dd	wä-
16cc	-re
=12	=12
4b;}	tot.'
==	==
!!!AGN: Ballade, Todesahnung, Tod, Selbstmord
!!!ONB: ESAC (Essen Associative Code) Database: BALLADE
!!!AMT: compound duple
!!!AIN: vox
!!!EED: Helmut Schaffrath
!!!EEV: 1.0
!!@@COMMENT:"A 101390. Eſſershauſen (Naſſau), um 1860."
!!@@END:
!!!source: Deutsche Volkslieder mit ihren Melodien. Herausgegeben vom Deutschen Volksliedarchiv. Dritter Band Balladen. Berlin 1954.
!!!page: 89
!!!ENC: Anna Maria Matuszewska
!!!EEV: 2025/02/18
*-	*-
